img/svg/social/dribbble.svg

<svg height="512pt" viewBox="0 0 512 512" width="512pt" xmlns="http://www.w3.org/2000/svg"><path d="m333.023438 279.15625c25.109374 63.527344 43.753906 128.929688 55.871093 195.746094 17.285157-10.539063 33.441407-23.203125 48.125-37.882813 38.140625-38.144531 62.753907-86.207031 71.449219-138.371093-37.46875-15.5-78.503906-24.078126-121.507812-24.078126-18.382813 0-36.398438 1.585938-53.9375 4.585938zm0 0"/><path d="m437.234375 75.199219c-.074219-.070313-.144531-.148438-.214844-.21875-48.355469-48.351563-112.640625-74.980469-181.019531-74.980469-26.738281 0-52.851562 4.089844-77.628906 11.941406 39.714844 49.757813 74.652344 102.859375 104.59375 158.980469 56.40625-23.949219 108.363281-56.398437 154.269531-95.722656zm0 0"/><path d="m457.347656 97.859375c-48.15625 41.363281-101.96875 74.882813-160.527344 99.933594 8.632813 17.378906 16.785157 35.035156 24.480469 52.953125 21.488281-4.089844 43.414063-6.175782 65.660157-6.175782 43.089843 0 85 7.75 124.769531 23.003907.171875-3.84375.269531-7.699219.269531-11.570313 0-58.09375-19.226562-113.222656-54.652344-158.144531zm0 0"/><path d="m98.425781 457.800781c44.816407 35.140625 99.730469 54.199219 157.574219 54.199219 36.765625 0 72.34375-7.710938 104.902344-22.34375-12.203125-70.710938-31.742188-138.9375-57.8125-203.871094-90.597656 24.726563-165.238282 88.484375-204.664063 172.015625zm0 0"/><path d="m251.160156 271.992188c13.167969-5.570313 26.589844-10.289063 40.222656-14.171876-7.195312-16.476562-14.828124-32.71875-22.859374-48.730468-69.160157 25.679687-141.882813 38.691406-216.585938 38.691406-17.355469 0-34.597656-.714844-51.714844-2.113281-.1367185 3.433593-.222656 6.878906-.222656 10.335937 0 68.378906 26.628906 132.664063 74.980469 181.015625.015625.015625.035156.03125.050781.046875 16.722656-33.351562 38.59375-63.664062 65.242188-90.316406 32.035156-32.03125 69.339843-57.183594 110.886718-74.757812zm0 0"/><path d="m254.492188 182.144531c-30.378907-56.261719-65.921876-109.34375-105.980469-158.617187-26.996094 12.503906-51.867188 29.789062-73.53125 51.453125-38.734375 38.734375-63.511719 87.699219-71.839844 140.800781 16.09375 1.316406 32.367187 2 48.796875 2 71.101562 0 139.324219-12.585938 202.554688-35.636719zm0 0"/></svg>

<svg width="512" height="512" viewBox="0 0 512 512" fill="none" xmlns="http://www.w3.org/2000/svg">
<path d="M333.023 279.156C358.133 342.684 376.777 408.086 388.895 474.902C406.18 464.363 422.336 451.699 437.02 437.02C475.16 398.875 499.773 350.812 508.469 298.648C471 283.148 429.965 274.57 386.961 274.57C368.578 274.57 350.562 276.156 333.023 279.156V279.156Z" fill="white"/>
<path d="M437.234 75.1992C437.16 75.1289 437.09 75.0508 437.02 74.9805C388.664 26.6289 324.379 0 256 0C229.262 0 203.148 4.08984 178.371 11.9414C218.086 61.6992 253.023 114.801 282.965 170.922C339.371 146.973 391.328 114.523 437.234 75.1992Z" fill="white"/>
<path d="M457.348 97.8594C409.191 139.223 355.379 172.742 296.82 197.793C305.453 215.172 313.605 232.828 321.301 250.746C342.789 246.656 364.715 244.57 386.961 244.57C430.051 244.57 471.961 252.32 511.73 267.574C511.902 263.73 512 259.875 512 256.004C512 197.91 492.773 142.781 457.348 97.8594V97.8594Z" fill="white"/>
<path d="M98.4258 457.801C143.242 492.941 198.156 512 256 512C292.766 512 328.344 504.289 360.902 489.656C348.699 418.945 329.16 350.719 303.09 285.785C212.492 310.512 137.852 374.27 98.4258 457.801V457.801Z" fill="white"/>
<path d="M251.16 271.992C264.328 266.422 277.75 261.703 291.383 257.82C284.188 241.344 276.555 225.102 268.523 209.09C199.363 234.77 126.641 247.781 51.9375 247.781C34.582 247.781 17.3398 247.066 0.222656 245.668C0.0859375 249.102 0 252.547 0 256.004C0 324.383 26.6289 388.668 74.9805 437.02C74.9961 437.035 75.0156 437.051 75.0312 437.066C91.7539 403.715 113.625 373.402 140.273 346.75C172.309 314.719 209.613 289.566 251.16 271.992Z" fill="white"/>
<path d="M254.492 182.145C224.113 125.883 188.57 72.8008 148.512 23.5273C121.516 36.0312 96.6445 53.3164 74.9805 74.9805C36.2461 113.715 11.4688 162.68 3.14062 215.781C19.2344 217.098 35.5078 217.781 51.9375 217.781C123.039 217.781 191.262 205.195 254.492 182.145Z" fill="white"/>
</svg>
